assets/features/payment-flow/ShopeePay.svg

<svg width="200" height="200" viewBox="0 0 200 200" fill="none" xmlns="http://www.w3.org/2000/svg">
<rect width="200" height="200" rx="40" fill="#EE4E2C"/>
<path fill-rule="evenodd" clip-rule="evenodd" d="M61.8047 71.0562H140.483C145.717 71.0562 150 75.3383 150 80.5706V135.616C150 140.848 145.717 145.13 140.483 145.13H59.5165C54.283 145.13 50 140.848 50 135.616V67.6188C50 65.1434 52.0418 63.4305 54.4943 63.1255L127.048 53.8691C129.524 53.8691 131.542 55.887 131.542 58.3624V66.0584H57.2636C57.2636 69.2847 58.2258 71.0562 61.793 71.0562H61.8047ZM105.926 131.369C99.3077 132.636 90.8003 130.431 86.177 125.456C84.0882 123.216 87.456 119.825 89.5564 122.089C92.666 125.445 98.2164 127.005 102.746 126.899C108.519 126.77 113.647 121.526 110.373 115.66C105.832 107.542 94.6609 109.818 88.9111 103.436C84.2643 98.2856 86.4703 90.1907 91.9268 86.6125C97.6179 82.87 107.44 83.0108 112.122 88.384C114.14 90.6834 110.76 94.0739 108.742 91.751C104.964 87.422 96.0338 88.0085 92.6191 92.4666C87.7728 98.837 95.0246 102.263 100.094 103.799C107.064 105.911 114.797 109.771 116.064 117.76C117.073 124.189 112.098 130.184 105.926 131.369Z" fill="white"/>
</svg>

<svg xmlns="http://www.w3.org/2000/svg" width="200" height="200" fill="none" viewBox="0 0 200 200"><rect width="200" height="200" fill="#ee4e2c" rx="40"/><path fill="#fff" fill-rule="evenodd" d="M61.805 71.056h78.678c5.234 0 9.517 4.282 9.517 9.515v55.045c0 5.232-4.283 9.514-9.517 9.514H59.517c-5.234 0-9.517-4.282-9.517-9.514V67.619c0-2.476 2.042-4.188 4.494-4.493l72.554-9.257a4.5 4.5 0 0 1 4.494 4.493v7.696H57.264c0 3.227.962 4.998 4.529 4.998zm44.121 60.313c-6.618 1.267-15.126-.938-19.749-5.913-2.089-2.24 1.279-5.631 3.38-3.367 3.109 3.356 8.66 4.916 13.189 4.81 5.773-.129 10.901-5.373 7.627-11.239-4.541-8.118-15.712-5.842-21.462-12.224-4.647-5.15-2.44-13.245 3.016-16.824 5.69-3.742 15.513-3.601 20.195 1.772 2.018 2.3-1.362 5.69-3.38 3.367-3.778-4.329-12.708-3.743-16.123.716-4.846 6.37 2.406 9.796 7.475 11.332 6.97 2.112 14.703 5.972 15.97 13.961 1.009 6.429-3.966 12.424-10.138 13.609" clip-rule="evenodd"/></svg>
